X: 05079
T: SCERBI'S POLKA
C: Bob McQuillen 26 Mar 81
B: Bob's Note Book 5 #79
%R: polka, march
Z: 2021 John Chambers <jc:trillian.mit.edu>
M: C
L: 1/8
K: D
[|A4 F3G | ABAF D2d2 | e2d2 c2B2 | c2 e6 || G4 E3F | G2 E4 d2 | c2B2 A2e2 | d2e2 f2d2 |
| A4 F3G | A2B2 A3d | e2d2 c2d2 | c2 B4 c2 || d4 e3d | B2A2 f3g | f2e2 d2c2 | d8 |]
[|d2f2 e2d2 | B2A2 B2A2 | d2ef e2d2 | c2d2 e4 || e3f e2c2 | A2c2 e3g | f2e2 d2c2 | d2f2 a2g2 |
| f2gf e2d2 | B2A2 d3e | f2a2 g2f2 | f2 e4 f2 || g2ag f2e2 | d2f2 a2g2 | f2ed e2c2 | d8 |]
%%begintext align
%% This tune is for my good
%% friend Gregory Scerbinski. It may not be "Roll
%% Out the Barrell", Scerbi, but I hope you like it anyway!
%%endtext

%%sep 1 1 500

%%sep 1 1 500

